X:1
T:Every Step
T:Every Step
T:David Martin Ragle
T:James Rowe, 1912
T:Public Domain Courtesy of the Cyber Hymnal™
C:David Martin Ragle
Z:Public Domain
Z:Courtesy of the Cyber Hymnal™
%%score ( 1 2 ) ( 3 4 )
L:1/8
Q:1/4=95
M:4/4
K:Bb
V:1 treble 
V:2 treble 
V:3 bass 
V:4 bass 
V:1
 [DB]2 [DF]2 [EG][EA][DB]F | [EG]2 [GB]2 [Fd]4 | [Fd]>[Ge] [Fd]>[Ec] [DB]2 [Fd]2 | [Fc]6 z2 | %4
w: 1.~Ev- ery step, my Sav- ior,|lead Thou me,|Then I shall not go a-|stray;|
w: 2.~There are foes who try to|take con- trol,|Who would lead me in- to|sin;|
w: 3.~If I feel the touch of|Thy dear hand,|I shall trust Thy sav- ing|grace,|
 [Fd]2 [Ge]2 [Fd][Ec][DB]F | [EF]2 [D_A]2 [EG]4 | [DF]>[FB] [EA]>[DB] [Fd]2 [Ec]2 | [DB]6 || %8
w: Safe in Thy dear keep- ing|I shall be,|Till shall dawn the bet- ter|day.|
w: Ev- ery step, dear Je- sus,|lead my soul,|Then I know that I shall|win.|
w: And in ev- ery tri- al|firm- ly stand|Till I meet Thee face to|face.|
"^Refrain" [DF]>[DF] | F6 [DB]>[FA] | B6 z2 | [EB]>[EA] [EB][EG] [DF]2 [FB]2 | [Fc]6 z2 | %13
w: |||||
w: Ev- ery|step, ev- ery|step,|Let me ne- ver walk a-|lone;|
w: |||||
 [Fd][Ge][Fd][Ec] [DB]2 FF | [EF]2 [D_A]2 [EG]4 | [DF]>[FB] [EA]>[DB] [Fd]2 [Ec]2 | [DB]6 z2 |] %17
w: ||||
w: Keep my hand in Thine, O Thou|friend di- vine,|Till I stand be- fore Thy|throne.|
w: ||||
V:2
 x7 F | x8 | x8 | x8 | x7 F | x8 | x8 | x6 || x2 | (D2 F2 E2) x2 | (F2 ^F2 G2) x2 | x8 | x8 | %13
 x6 FF | x8 | x8 | x8 |] %17
V:3
 [B,,F,]2 [B,,B,]2 [B,,A,][B,,G,][B,,F,][D,B,] | [E,B,]2 [E,B,]2 [B,,B,]4 | %2
w: ||
 [B,,B,]>[B,,B,] [B,,B,]>[C,A,] [D,B,]2 [B,,B,]2 | [F,A,]6 z2 | B,2 B,2 B,[F,A,][G,B,][D,B,] | %5
w: ||dear Lord, dear * * *|
 [F,C]2 B,2 [E,B,]4 | [F,B,]>[F,D] [F,C]>[F,B,] [F,B,]2 F,2 | [B,,F,]6 || [B,,B,]>[B,,B,] | %9
w: * Lord *||||
 [B,,B,]2 [D,B,]2 [F,A,]2 [G,B,]>[F,C] | [B,D]2 [D,C]2 [E,B,]2 z2 | %11
w: ||
 [E,G,]>[E,^F,] [E,G,][E,B,] [B,,B,]2 [D,B,]2 | [F,A,]6 z2 | B,B,B,[F,A,] [G,B,]2 [D,B,][D,B,] | %14
w: |||
 [F,C]2 B,2 [E,B,]4 | [F,B,]>[F,D] [F,C]>[F,B,] [F,B,]2 F,2 | [B,,F,]6 z2 |] %17
w: |||
V:4
 x8 | x8 | x8 | x8 | B,2 B,2 B, x3 | x2 B,2 x4 | x6 F,2 | x6 || x2 | x8 | x8 | x8 | x8 | %13
 B,B,B, x5 | x2 B,2 x4 | x6 F,2 | x8 |] %17

